azure-patterns/svg-research.svg

<svg xmlns="http://www.w3.org/2000/svg" viewBox="0 0 40 55">
                                
                            
    <g stroke="none" stroke-width="1" fill="none" fill-rule="evenodd">
        <path d="M35.1467,22.996 C34.6817,22.578 33.6857,21.817 32.8177,21.169 C32.8977,20.762 32.9417,20.343 32.9417,19.913 C32.9417,16.331 30.0377,13.428 26.4567,13.428 C25.5007,13.428 24.5987,13.639 23.7827,14.009 L28.4087,4.567 L24.4187,2.092 L9.8867,27.031 L14.4717,29.277 L20.0377,20.788 C20.4647,23.954 23.1717,26.397 26.4567,26.397 C27.2207,26.397 27.9527,26.258 28.6327,26.016 C29.7167,27.376 30.9797,29.037 31.5717,30.102 C32.7177,32.166 32.2587,40.188 29.0957,42.848 C25.9327,45.506 23.1817,46.239 19.4227,46.101 C15.6637,45.965 13.3717,42.801 13.5547,42.801 C13.7387,42.801 4.9817,42.848 4.9817,42.848 C4.9817,42.848 6.4947,45.689 7.6407,46.698 C8.7877,47.707 10.4827,49.953 13.6007,51.237 C16.7177,52.52 22.2187,53.07 22.4027,53.07 C27.0007,53.07 31.7547,49.632 33.1757,48.577 C34.5967,47.523 39.1357,43.076 39.3657,36.199 C39.5937,29.323 36.0647,23.821 35.1467,22.996" fill="#FFFFFF"></path>
        <path d="M18.6506,52.0937 C13.4506,51.3637 8.8836,48.4047 6.1936,43.9487 L13.4046,43.9487 C15.9386,45.7557 18.6126,46.7097 21.1526,46.7097 C27.6966,46.7097 33.0186,41.2937 33.0186,34.6377 C33.0186,31.4777 31.6686,28.5467 29.5296,26.3827 C31.3046,25.5357 32.6806,23.9877 33.2876,22.0927 C36.5626,25.2647 38.5866,29.7217 38.5866,34.7287 C38.5866,43.5927 32.0226,50.9247 23.5406,52.0937 C23.5406,52.0937 22.8626,52.2497 21.2536,52.2497 C19.3106,52.2497 18.6506,52.0937 18.6506,52.0937 Z M26.4566,25.7097 C23.2596,25.7097 20.6586,23.1087 20.6586,19.9117 C20.6586,16.7157 23.2596,14.1147 26.4566,14.1147 C29.6526,14.1147 32.2536,16.7157 32.2536,19.9117 C32.2536,23.1087 29.6526,25.7097 26.4566,25.7097 Z M13.6216,27.8997 L10.9156,26.3367 L24.5376,2.7417 L27.2436,4.3047 L13.6216,27.8997 Z M39.9616,34.7287 C39.9616,29.0077 37.5126,23.9537 33.5976,20.5117 L33.5976,20.5147 C33.6146,20.3157 33.6286,20.1157 33.6286,19.9117 C33.6286,16.4607 31.1776,13.5727 27.9246,12.8927 L31.8166,6.1517 C32.0066,5.8227 31.8936,5.4017 31.5656,5.2117 L29.9346,4.2707 L31.1756,2.2527 L27.2746,-0.0003 L26.0326,2.0177 L24.6296,1.2077 C24.4726,1.1147 24.2876,1.0897 24.1076,1.1387 C23.9306,1.1867 23.7816,1.3007 23.6906,1.4587 L9.6176,25.8337 L8.1826,25.0057 L6.8056,27.3347 L17.6346,33.5867 L19.0116,31.2577 L17.7446,30.5267 L21.1166,24.6847 L21.1126,24.6807 C22.4266,26.1527 24.3326,27.0847 26.4566,27.0847 C27.0206,27.0847 27.5676,27.0127 28.0946,26.8887 C28.0926,26.8897 28.0906,26.8907 28.0886,26.8907 C30.2516,28.8347 31.6436,31.6177 31.6436,34.6377 C31.6436,40.5357 26.9376,45.3337 21.1526,45.3337 C19.0096,45.3337 17.0596,44.5617 15.5246,43.6757 L18.3716,43.6757 L18.3716,41.2877 L0.0006,41.2877 L0.0006,43.6757 L4.4656,43.6757 C6.4706,47.5037 9.6996,50.4307 13.5636,52.0937 L5.5536,52.0937 L5.5536,54.5827 L37.2036,54.5827 L37.2036,52.0937 L28.6196,52.0937 C35.2846,49.1847 39.9616,42.4987 39.9616,34.7287 Z" fill="#0078D7"></path>
        <path d="M26.4563,17.6894 C25.2303,17.6894 24.2333,18.6864 24.2333,19.9124 C24.2333,21.1384 25.2303,22.1364 26.4563,22.1364 C27.6823,22.1364 28.6793,21.1384 28.6793,19.9124 C28.6793,18.6864 27.6823,17.6894 26.4563,17.6894 M26.4563,23.5114 C24.4723,23.5114 22.8573,21.8964 22.8573,19.9124 C22.8573,17.9274 24.4723,16.3134 26.4563,16.3134 C28.4403,16.3134 30.0553,17.9274 30.0553,19.9124 C30.0553,21.8964 28.4403,23.5114 26.4563,23.5114" fill="#0078D7"></path>
    </g>
</svg>

<svg xmlns="http://www.w3.org/2000/svg" viewBox="0 0 40 55"><g fill="none" fill-rule="evenodd"><path d="M35.147 22.996c-.465-.418-1.461-1.179-2.33-1.827a6.485 6.485 0 0 0-6.361-7.741 6.45 6.45 0 0 0-2.673.581l4.626-9.442-3.99-2.475L9.887 27.031l4.585 2.246 5.566-8.489a6.48 6.48 0 0 0 6.419 5.609 6.48 6.48 0 0 0 2.176-.381c1.084 1.36 2.347 3.021 2.939 4.086 1.146 2.064.687 10.086-2.476 12.746-3.163 2.658-5.914 3.391-9.673 3.253-3.76-.136-6.051-3.3-5.868-3.3.184 0-8.573.047-8.573.047s1.513 2.841 2.659 3.85c1.147 1.009 2.842 3.255 5.96 4.539 3.117 1.283 8.618 1.833 8.802 1.833 4.598 0 9.352-3.438 10.773-4.493 1.42-1.054 5.96-5.501 6.19-12.378.228-6.876-3.301-12.378-4.22-13.203" fill="#FFF"/><path d="M18.65 52.094c-5.2-.73-9.766-3.69-12.456-8.145h7.21c2.535 1.807 5.209 2.76 7.749 2.76 6.544 0 11.866-5.415 11.866-12.071 0-3.16-1.35-6.091-3.49-8.255a7.204 7.204 0 0 0 3.759-4.29c3.275 3.172 5.299 7.629 5.299 12.636 0 8.864-6.564 16.196-15.046 17.365 0 0-.678.156-2.287.156-1.943 0-2.603-.156-2.603-.156zm7.807-26.384a5.805 5.805 0 0 1-5.798-5.798 5.804 5.804 0 0 1 5.798-5.797 5.804 5.804 0 0 1 5.797 5.797 5.804 5.804 0 0 1-5.797 5.798zM13.622 27.9l-2.706-1.563L24.538 2.742l2.706 1.563L13.622 27.9zm26.34 6.829c0-5.721-2.45-10.775-6.364-14.217v.003c.017-.2.03-.4.03-.603 0-3.451-2.45-6.34-5.703-7.02l3.892-6.74a.689.689 0 0 0-.251-.94l-1.631-.941 1.24-2.018L27.276 0l-1.242 2.018-1.403-.81a.686.686 0 0 0-.939.251L9.618 25.834l-1.435-.828-1.377 2.329 10.829 6.252 1.377-2.33-1.267-.73 3.372-5.842-.004-.004a7.147 7.147 0 0 0 5.344 2.404 7.137 7.137 0 0 0 1.632-.194c2.163 1.944 3.555 4.727 3.555 7.747 0 5.898-4.706 10.696-10.491 10.696-2.143 0-4.093-.772-5.628-1.658h2.847v-2.388H0v2.388h4.465a18.493 18.493 0 0 0 9.098 8.418h-8.01v2.489h31.65v-2.49H28.62A18.947 18.947 0 0 0 39.962 34.73z" fill="#0078D7"/><path d="M26.456 17.69a2.225 2.225 0 0 0-2.223 2.222c0 1.226.997 2.224 2.223 2.224a2.226 2.226 0 0 0 2.223-2.224 2.225 2.225 0 0 0-2.223-2.223m0 5.822a3.604 3.604 0 0 1-3.599-3.599 3.603 3.603 0 0 1 3.6-3.599 3.603 3.603 0 0 1 3.598 3.6 3.604 3.604 0 0 1-3.599 3.598" fill="#0078D7"/></g></svg>
